svg/editor/Heading_2_line.svg

<?xml version="1.0" encoding="UTF-8"?>
<svg width="24px" height="24px" viewBox="0 0 24 24" version="1.1" xmlns="http://www.w3.org/2000/svg" xmlns:xlink="http://www.w3.org/1999/xlink">
    <title>Heading_2_line</title>
    <g id="页面-1" stroke="none" stroke-width="1" fill="none" fill-rule="evenodd">
        <g id="Editor" transform="translate(-480.000000, 0.000000)" fill-rule="nonzero">
            <g id="Heading_2_line" transform="translate(480.000000, 0.000000)">
                 <path d="M24,0 L24,24 L0,24 L0,0 L24,0 Z M12.5934901,23.257841 L12.5819402,23.2595131 L12.5108777,23.2950439 L12.4918791,23.2987469 L12.4918791,23.2987469 L12.4767152,23.2950439 L12.4056548,23.2595131 C12.3958229,23.2563662 12.3870493,23.2590235 12.3821421,23.2649074 L12.3780323,23.275831 L12.360941,23.7031097 L12.3658947,23.7234994 L12.3769048,23.7357139 L12.4804777,23.8096931 L12.4953491,23.8136134 L12.4953491,23.8136134 L12.5071152,23.8096931 L12.6106902,23.7357139 L12.6232938,23.7196733 L12.6232938,23.7196733 L12.6266527,23.7031097 L12.609561,23.275831 C12.6075724,23.2657013 12.6010112,23.2592993 12.5934901,23.257841 L12.5934901,23.257841 Z M12.8583906,23.1452862 L12.8445485,23.1473072 L12.6598443,23.2396597 L12.6498822,23.2499052 L12.6498822,23.2499052 L12.6471943,23.2611114 L12.6650943,23.6906389 L12.6699349,23.7034178 L12.6699349,23.7034178 L12.678386,23.7104931 L12.8793402,23.8032389 C12.8914285,23.8068999 12.9022333,23.8029875 12.9078286,23.7952264 L12.9118235,23.7811639 L12.8776777,23.1665331 C12.8752882,23.1545897 12.8674102,23.1470016 12.8583906,23.1452862 L12.8583906,23.1452862 Z M12.1430473,23.1473072 C12.1332178,23.1423925 12.1221763,23.1452606 12.1156365,23.1525954 L12.1099173,23.1665331 L12.0757714,23.7811639 C12.0751323,23.7926639 12.0828099,23.8018602 12.0926481,23.8045676 L12.108256,23.8032389 L12.3092106,23.7104931 L12.3186497,23.7024347 L12.3186497,23.7024347 L12.3225043,23.6906389 L12.340401,23.2611114 L12.337245,23.2485176 L12.337245,23.2485176 L12.3277531,23.2396597 L12.1430473,23.1473072 Z" id="MingCute" fill-rule="nonzero"></path>
                <path d="M13,3 C13.51285,3 13.9355092,3.38604429 13.9932725,3.88337975 L14,4 L14,20 C14,20.5523 13.5523,21 13,21 C12.48715,21 12.0644908,20.613973 12.0067275,20.1166239 L12,20 L12,13 L5,13 L5,20 C5,20.5523 4.55228,21 4,21 C3.48716857,21 3.06449347,20.613973 3.0067278,20.1166239 L3,20 L3,4 C3,3.44772 3.44772,3 4,3 C4.51283143,3 4.93550653,3.38604429 4.9932722,3.88337975 L5,4 L5,11 L12,11 L12,4 C12,3.44772 12.4477,3 13,3 Z M17.6575,12.6791 C18.2901,12.521 18.9499,12.6084 19.5304,12.8987 C20.6922,13.4796 21.2947,14.7895 20.9797,16.0497 C20.8789857,16.4525571 20.6967939,16.8293327 20.4382254,17.1522551 L20.3026,17.3091 L18.7244,19 L20.3542,19 C20.9065,19 21.3542,19.4477 21.3542,20 C21.3542,20.51285 20.968173,20.9355092 20.4708239,20.9932725 L20.3542,21 L16.6492,21 C16.0918,21 15.6399,20.5482 15.6399,19.9907 C15.6399,19.69775 15.6621031,19.4213375 15.830043,19.182766 L15.9113,19.0829 L18.8405,15.9445 C19.3159,15.4352 18.897,14.4308 18.1425,14.6194 C17.8471,14.6933 17.6399,14.9587 17.6399,15.2632 C17.6399,15.8397 17.2573,16.3572 16.6399,16.3572 C16.0225,16.3572 15.6399,15.8397 15.6399,15.2632 C15.6399,14.041 16.4717,12.9756 17.6575,12.6791 Z" id="形状" fill="#09244B"></path>
            </g>
        </g>
    </g>
</svg>

<svg xmlns="http://www.w3.org/2000/svg" width="24" height="24"><g fill="none" fill-rule="nonzero"><path d="M24 0v24H0V0h24ZM12.593 23.258l-.011.002-.071.035-.02.004-.014-.004-.071-.035c-.01-.004-.019-.001-.024.005l-.004.01-.017.428.005.02.01.013.104.074.015.004.012-.004.104-.074.012-.016.004-.017-.017-.427c-.002-.01-.009-.017-.017-.018Zm.265-.113-.013.002-.185.093-.01.01-.003.011.018.43.005.012.008.007.201.093c.012.004.023 0 .029-.008l.004-.014-.034-.614c-.003-.012-.01-.02-.02-.022Zm-.715.002a.023.023 0 0 0-.027.006l-.006.014-.034.614c0 .012.007.02.017.024l.015-.002.201-.093.01-.008.004-.011.017-.43-.003-.012-.01-.01-.184-.092Z"/><path fill="#09244B" d="M13 3a1 1 0 0 1 .993.883L14 4v16a1 1 0 0 1-1.993.117L12 20v-7H5v7a1 1 0 0 1-1.993.117L3 20V4a1 1 0 0 1 1.993-.117L5 4v7h7V4a1 1 0 0 1 1-1Zm4.657 9.68a2.71 2.71 0 0 1 1.873.219 2.772 2.772 0 0 1 1.45 3.15c-.101.404-.283.78-.542 1.103l-.135.157L18.724 19h1.63a1 1 0 0 1 .117 1.993l-.117.007H16.65a1.01 1.01 0 0 1-1.01-1.01c0-.292.023-.569.191-.807l.081-.1 2.93-3.138c.475-.51.056-1.514-.699-1.326a.664.664 0 0 0-.502.644c0 .577-.383 1.094-1 1.094s-1-.517-1-1.094c0-1.222.832-2.287 2.017-2.584Z"/></g></svg>
